X: 29350
T: Newlyweds, The
R: waltz
M: 3/4
K: Amajor
c2 cBcB|cA E2 A>B|c e3 a>g|f4 a>f|
e2 c2 A>c|B2 A2 A>B|c2 B2 A>E|F4 A>B|
c2 cBcB|cA E2 A>B|c e3 a>g|f a3 a>f|
e2 c2 A>c|BA F2 E2|FA A2 A>B|A4:|
a3 A c>a|g3 A c>g|f2 f>gf>e|c2 e2 c>e|
f2 e>gf>e|c e3 (3cBA|B2 B>c (3BAE|F4 A>B|
c2 cBcB|cA E2 A>B|c e3 a>g|f a3 a>f|
e2 c2 A>c|BA F2 E2|FA A2 A>B|A4:|

